!!!COM: Bach, Johann Sebastian
!!!OPR: Die Kunst der Fuge
!!!XEN: The Art of Fugue
!!!OTL:
!!!OMV: 3
!!!SCT: BWV 1080
!!!SCA: Thematisch-systematisches Verzeichnis der musikalischen Werke Johann Sebastian Bach: Bach-Werke-Verzeichnis (Schmieder)
!!!YOR: Bach Gesellschaft Edition xxv,1
!!!EED: Frances Bennion
!!!ENC: Frances Bennion
!!!CDT: 1685/3//-1750/7/28/
!!!OCY: Deutschland
!!!YEC: Copyright (c) 1994, 2000 Center for Computer Assisted Research in the Humanities
!!!YEM: Rights to all derivative editions reserved.
!!!YEM: Refer to licensing agreement for further details.
!!!YEN: United States of America
**kern	**kern	**kern	**kern
*k[b-]	*k[b-]	*k[b-]	*k[b-]
*d:	*d:	*d:	*d:
*clefG	*clefG	*clefC	*clefC
*M2/2	*M2/2	*M2/2	*M2/2
=1	=1	=1	=1
1r	1r	2d	1r
.	.	2A	.
=2	=2	=2	=2
1r	1r	2c	1r
.	.	2e	.
=3	=3	=3	=3
1r	1r	2f	1r
.	.	4e	.
.	.	4d	.
=4	=4	=4	=4
1r	1r	[2c#	1r
.	.	8c#]	.
.	.	8A	.
.	.	8B	.
.	.	8c#	.
=5	=5	=5	=5
1r	2a	4d	1r
.	.	2c	.
.	2d	.	.
.	.	8B	.
.	.	8B-	.
=6	=6	=6	=6
1r	2f	8A	1r
.	.	8G#	.
.	.	8A	.
.	.	8B	.
.	2a	4c	.
.	.	[4c#	.
=7	=7	=7	=7
1r	2b-	4c#]	1r
.	.	8d	.
.	.	8e	.
.	4a	4f	.
.	4g	[4e	.
=8	=8	=8	=8
1r	[2f	8e]	1r
.	.	8A	.
.	.	8B	.
.	.	8c#	.
.	8f]	8d	.
.	8e	8c#	.
.	8f	8d	.
.	8g	8e	.
=9	=9	=9	=9
2dd	4a	8f	1r
.	.	8e	.
.	2g	8d	.
.	.	8c#	.
2a	.	4d	.
.	8f#	4D	.
.	8f	.	.
=10	=10	=10	=10
2cc	8e	8A	1r
.	8d#	8B	.
.	8e	4.c	.
.	8f#	.	.
2ee	4g	.	.
.	.	8e	.
.	[4g#	8d	.
.	.	8c	.
=11	=11	=11	=11
2ff	4g#]	8B	1r
.	.	8BB	.
.	8a	8C	.
.	8b	8D	.
4ee	4cc	8E	.
.	.	8F#	.
4dd	[4b	8G#	.
.	.	8E	.
=12	=12	=12	=12
[2cc#	8b]	4A	1r
.	8e	.	.
.	8f	4G	.
.	8g	.	.
8cc#]	4a	4F	.
8a	.	.	.
8b	[4g	4E	.
8cc#	.	.	.
=13	=13	=13	=13
[2dd	8g]	8D	1r
.	8f#	8d	.
.	8g	8e	.
.	8a	8f#	.
8dd]	4b-	4g	.
8dd	.	.	.
8ee	4a	4f	.
8ff	.	.	.
=14	=14	=14	=14
8gg	[2g	4e	1r
8b	.	.	.
8cc#	.	4d	.
8dd	.	.	.
4ee	8g]	4c#	.
.	8e	.	.
[4dd	8f	4d	.
.	8g	.	.
=15	=15	=15	=15
8dd]	4.a	2e	2A
8cc#	.	.	.
2cc	.	.	.
.	8g	.	.
.	8f#	[2d	2D
.	8e	.	.
8b	[4f	.	.
8b-	.	.	.
=16	=16	=16	=16
8a	2f_	4d]	2F
8g#	.	.	.
8a	.	8c	.
8b	.	8B	.
4cc	8f]	4A	2A
.	8a	.	.
[4cc#	8g	4r	.
.	8f]	.	.
=17	=17	=17	=17
4cc#]	8g	4r	2B-
.	8e	.	.
8dd	8f	4.d	.
8ee	8g	.	.
4ff	[2a	.	4A
.	.	8B	.
[4ee	.	8c#	4G
.	.	8e	.
=18	=18	=18	=18
8ee]	8a]	4A	[2F
8a	8c#	.	.
8b	8d	2.r	.
8cc#	8e	.	.
4.dd	8f	.	8F]
.	8g	.	8E
.	8a	.	8F
8ee	8b-	.	8G
=19	=19	=19	=19
4cc#	4e	1r	8A
.	.	.	8AA
4ff	2a	.	8r
.	.	.	8AA
4.dd	.	.	8BB-
.	.	.	8AA
.	8g#	.	8BB
8ee	[8g	.	8C#
=20	=20	=20	=20
4a	8g]	1r	8D
.	8f#	.	8DD
2dd	4b-	.	8r
.	.	.	8D
.	4.g	.	8E-
.	.	.	8D
8cc#	.	.	8E
[8cc	8a	.	8F#
=21	=21	=21	=21
8cc]	4d	1r	8G
8b	.	.	8GG
4ee-	2g	.	8r
.	.	.	8GG
4.cc	.	.	8AA-
.	.	.	8GG
.	8f#	.	8AA
8dd	[8f	.	8BB
=22	=22	=22	=22
4g	8f]	1r	8C
.	8e	.	8CC
2cc	4a-	.	8r
.	.	.	8C
.	4.f	.	8D-
.	.	.	8C
8b	.	.	8D
[8b-	8g	.	8E
=23	=23	=23	=23
8b-]	4c	1r	8F
8a	.	.	8FF
2aa	2cc	.	8r
.	.	.	8F
.	.	.	8F#
.	.	.	8G
[4dd	8b	.	8r
.	8b-	.	8GG
=24	=24	=24	=24
8dd]	8a	1r	8FF
8ee	8g#	.	8EE
4.ff	8a	.	8DD
.	8b	.	8D
.	4cc	.	8AA
8gg	.	.	8B-
[4aa	[4cc#	.	8A
.	.	.	8G
=25	=25	=25	=25
8aa]	4cc#]	1r	8F
8gg	.	.	8E
2bb-	8dd	.	4.D
.	8ee	.	.
.	8ff	.	.
.	8dd	.	8G
8aa	[4ee	.	4C#
8gg	.	.	.
=26	=26	=26	=26
[2ff	8ee]	1r	4D
.	8a	.	.
.	8b	.	8r
.	8cc#	.	8AA
8ff]	[2dd	.	8BB-
8ee	.	.	8B-
8ff#	.	.	8A
8gg	.	.	8G
=27	=27	=27	=27
4aa	8dd]	1r	4.F#
.	8cc	.	.
4.dd	8b-	.	.
.	8a	.	16E
.	.	.	16F#
.	[2b-	.	8G
8gg	.	.	8F
8cc#	.	.	8E
8dd	.	.	8D
=28	=28	=28	=28
8ee	4b-]	1r	4.C#
8ff	.	.	.
8gg	4.a	.	.
8ee	.	.	16BB
.	.	.	16C#
[2ff	.	.	8D
.	8dd	.	8C
.	8g#	.	8BB
.	8a	.	8AA
=29	=29	=29	=29
8ff]	[2b	4r	4GG#
8ff	.	.	.
8ee	.	2e	4G#
8dd	.	.	.
4.cc	8b]	.	4A
.	16a	.	.
.	16g	.	.
.	8f#	[4A	8AA
8dd	8f	.	8BB
=30	=30	=30	=30
4ee	8e	8A]	4C
.	8d#	8B	.
2.r	8e	4.c	8r
.	8f#	.	8AA
.	4g	.	8E
.	.	8d	8F
.	[4g#	[4e	8E
.	.	.	8D
=31	=31	=31	=31
1r	4g#]	8e]	8C
.	.	8d	8BB
.	8a	2f	4.AA
.	8b	.	.
.	8cc	.	.
.	8a	.	8D
.	[4b	8e	4GG#
.	.	8d	.
=32	=32	=32	=32
1r	8b]	[2c	8AA
.	8e	.	8C
.	8f#	.	8D
.	8g#	.	8E
.	[2a	8c]	4F
.	.	8B	.
.	.	8c#	8E
.	.	8d	8D
=33	=33	=33	=33
1r	8a]	[2e	8C#
.	8b-	.	8AA
.	8a	.	8BB
.	8g	.	8C#
.	4f#	8e]	8D
.	.	8A	8E
.	[4f	8B	8D
.	.	8c	8C
=34	=34	=34	=34
1r	8f]	[2d	8BB
.	8a	.	8GG
.	8g	.	8AA
.	8f	.	8BB
.	4e	8d]	8C
.	.	8G	8D
.	[4e-	8A	8C
.	.	8B-	8BB-
=35	=35	=35	=35
1r	8e-]	8c	8AA
.	8g	8B-	8GG
.	8f	2c	8AA
.	8e-	.	8FF
.	4.d	.	8BB-
.	.	.	8AA
.	.	[4F	8BB-
.	8e	.	8C
=36	=36	=36	=36
1r	8f	8F]	4.D
.	8e	8G	.
.	8f	4.A	.
.	8g	.	8E
.	8a	.	4.F
.	8g	8B-	.
.	[4a	[4c	.
.	.	.	8D
=37	=37	=37	=37
1r	8a]	8c]	4.G
.	8g	8B-	.
.	8b-	2d	.
.	8a	.	8F
.	8g	.	8E
.	8f	.	8D
.	[4g	8c	8E
.	.	8B-	8C
=38	=38	=38	=38
1r	8g]	[2A	4F
.	8c	.	.
.	8d	.	4E
.	8e	.	.
.	8f	8A]	2D
.	8e	8G	.
.	[4f	8A	.
.	.	8B	.
=39	=39	=39	=39
1r	8f]	8c	4C
.	16e	8G	.
.	16d	.	.
.	4e	2c	8r
.	.	.	8C
.	4.f	.	8D-
.	.	.	8C
.	.	8B	8D
.	8g	[8B-	8E
=40	=40	=40	=40
1r	4c	8B-]	8F
.	.	8A	8FF
.	2a	4f	8r
.	.	.	8F
.	.	4.d	8BB-
.	.	.	8AA
.	8g#	.	8BB
.	[8g	8e	8C#
=41	=41	=41	=41
1r	8g]	4A	8D
.	16f#	.	8DD
.	16e	.	.
.	4f#	2d	8r
.	.	.	8D
.	4.g	.	8E-
.	.	.	8D
.	.	8c#	8E
.	8a	[8c	8F#
=42	=42	=42	=42
1r	4d	8c]	8G
.	.	8B	8GG
.	2b	4g	8r
.	.	.	8G
.	.	4.e	8C
.	.	.	8BB
.	8a#	.	8C#
.	[8a	8f#	8D#
=43	=43	=43	=43
2ee	8a]	4.B	4.E
.	8g#	.	.
.	2g	.	.
.	.	8c#	8E
2a	.	4.d	8F
.	.	.	8G
.	8f#	.	[4A
.	8f	8d	.
=44	=44	=44	=44
2cc	8e	8c	4.A]
.	8d#	8B	.
.	8e	8c	.
.	8f#	8A	8A
2ee	4g	4.B	8G
.	.	.	8F#
.	[4g#	.	[4E
.	.	8c	.
=45	=45	=45	=45
2ff	4g#]	8d	8E]
.	.	4c	8F
.	8a	.	8E
.	8b	4B	8D
4ee	4cc	.	4C
.	.	4A	.
4dd	[4b	.	4E
.	.	8G#	.
=46	=46	=46	=46
[2cc	8b]	4A	4AA
.	8e	.	.
.	8f#	2.r	2.r
.	8g#	.	.
8cc]	8a	.	.
8a	8g	.	.
8b	8f	.	.
8cc#	8e	.	.
=47	=47	=47	=47
8dd	8f	8r	1r
8cc	8f#	8D	.
8b	8g	8E	.
8a	4a	8F#	.
4b	.	4G	.
.	8g	.	.
[4cc	8f	8A	.
.	8e	8F	.
=48	=48	=48	=48
8cc]	8d	8G	1r
8b	8g	8f	.
8cc	8a	8e	.
8dd	8b	8d	.
8ee	8cc	8c	.
8dd	8e	8C	.
8cc	8f	8D	.
8b-	[8g	8E	.
=49	=49	=49	=49
4a	8g]	4F	1r
.	8f	.	.
4.b-	8e-	8G	.
.	8d	8E-	.
.	8c	8F	.
8a	8f	8e-	.
8b-	8g	8d	.
8cc	8a	8c	.
=50	=50	=50	=50
8dd	8b-	8B-	1r
8cc	8d	8BB-	.
8b-	8e-	8C	.
8a-	8f	8D	.
[2g	8B-	8E-	.
.	8B	8F	.
.	8c	8E-	.
.	8d	8D	.
=51	=51	=51	=51
8g]	8e-	8C	2C
8f#	8d	8D	.
8g	8c	8E	.
8a	8e-	8F#	.
8b-	8d	4G	2GG
8a	8f#	.	.
8b-	[4g	8r	.
8cc	.	8E-	.
=52	=52	=52	=52
8dd	8g]	4D	2BB-
8cc#	8a	.	.
8dd	4.b-	8r	.
8ee	.	8G	.
4ff	.	8F	2D
.	8dd	8B-	.
[4ff#	8cc	[4A	.
.	8b-	.	.
=53	=53	=53	=53
4ff#]	8cc	4A]	2E-
.	8a	.	.
8gg	8b-	4.G	.
8aa	8cc	.	.
4bb-	[2dd	.	4D
.	.	8E	.
[4aa	.	8F#	4C
.	.	8A	.
=54	=54	=54	=54
8aa]	2dd_	8D	[2BB-
8dd	.	8F#	.
8ee	.	8G	.
8ff#	.	8A	.
[2gg	8dd]	8B-	8BB-]
.	8cc#	4.r	8AA
.	8dd]	.	8BB
.	8ee	.	8C#
=55	=55	=55	=55
8gg]	2a	8r	4D
8ff#	.	8d	.
8gg	.	8c#	8E
4aa	.	4c	8F#
.	4.d	.	2G
8ff#	.	8c	.
4gg	.	8B	.
.	8e	8B-	.
=56	=56	=56	=56
1r	4.f	8A	2D
.	.	8G#	.
.	.	8A	.
.	8g	8B	.
.	4.a	4c	8C
.	.	.	8D
.	.	[4c#	[4E
.	8g	.	.
=57	=57	=57	=57
1r	[2b-	4c#]	8E]
.	.	.	8G
.	.	8d	8F
.	.	8e	8E
.	8b-]	4f	4D
.	4a	.	.
.	.	4e	4C#
.	8g	.	.
=58	=58	=58	=58
2dd	[2f	8r	[2D
.	.	8A	.
.	.	8B	.
.	.	8c#	.
4.a	8f]	8d	8D]
.	8e	8A	4C
.	8f#	4D	.
8b	8g#	.	8BB
=59	=59	=59	=59
4.cc	8a	8E	2AA
.	8b	8D#	.
.	4cc	8E	.
8dd	.	8F#	.
4.ee	8b	4.G	8GG
.	8cc#	.	8AA
.	4dd	.	4BB-
8dd	.	8G#	.
=60	=60	=60	=60
[2ff	8cc#	4A	8AA
.	8cc	.	8D
.	8b-	2r	8E
.	8a	.	8F
8ff]	4b-	.	4G
4ee	.	.	.
.	4b	4e	4G#
8dd	.	.	.
=61	=61	=61	=61
4cc#	8a	4e	8A
.	8g	.	8B-
4.cc	8f#	2.r	8A
.	8a	.	8G
.	[2d	.	4F#
8a	.	.	.
8b	.	.	8G
8cc#	.	.	8A
=62	=62	=62	=62
[2dd	8d]	1r	8B-
.	8f#	.	8c
.	8g	.	8B-
.	8a	.	8A
8dd]	8b-	.	8G
8dd	8b	.	8F
8ee	8cc#	.	8E
8ff	8dd	.	8D
=63	=63	=63	=63
4.gg	8ee	2A	4C#
.	8dd	.	.
.	8ee-	.	2C
8ff#	8a	.	.
4.gg	8b-	2D	.
.	8cc	.	.
.	[4dd	.	8BB
8gg#	.	.	8BB-
=64	=64	=64	=64
[2aa	4dd]	2F	8AA
.	.	.	8GG#
.	8cc	.	8AA
.	8b	.	8BB
8aa]	4a	2A	4C
8aa	.	.	.
8gg	[4ee	.	[4C#
8ff	.	.	.
=65	=65	=65	=65
4gg	8ee]	2B-	4C#]
.	8ee	.	.
8ff	8dd	.	8D
8ee	8cc#	.	8E
8dd	8dd	4A	4F
8cc#	8a	.	.
8dd	8b-	4G	[4E
8ee	8g	.	.
=66	=66	=66	=66
8ff	[2a	[2F	8E]
8gg	.	.	8AA
8ff	.	.	8BB
8ee	.	.	8C#
8ff	8a]	8F]	[2D
8gg	8b-	8E	.
4aa	8a	8F#	.
.	8g	8G	.
=67	=67	=67	=67
[2cc	8f#	[2A	8D]
.	8g	.	8C
.	4a	.	8BB-
.	.	.	8AA
8cc]	[2d	8A]	[2BB-
8f#	.	8D	.
8g	.	8E	.
8a	.	8F#	.
=68	=68	=68	=68
2b-	2d_	[2G	8BB-]
.	.	.	8AA
.	.	.	8BB-
.	.	.	8GG
[2a	8d]	8G]	[2D
.	8e-	8F#	.
.	8d]	8G	.
.	8c	8A	.
=69	=69	=69	=69
8a]	8B-	4B-	1D_
8f#	8d	.	.
4.g	8c#	8A	.
.	4e	8G	.
.	.	[2A	.
8g	8e	.	.
8f#	8d	.	.
8e	8c#	.	.
=70	=70	=70	=70
8f#	4.d	2A_	1D_
8g	.	.	.
4a	.	.	.
.	8c	.	.
[2d	[2B-	8A]	.
.	.	8A]	.
.	.	8G	.
.	.	8F#	.
=71	=71	=71	=71
4.d]	8B-]	[1G	2D_
.	8A	.	.
.	[2.B-	.	.
8c#	.	.	.
[2d	.	.	8D]
.	.	.	8AA
.	.	.	8BB-
.	.	.	8GG
=72	=72	=72	=72
1d]	8B-]	8G]	1DD
.	8A	8F#	.
.	8B-	8G	.
.	8G	8E	.
.	2A	2F#	.
==	==	==	==
*-	*-	*-	*-
!!!RWG1: This file contains only pitch and duration data.
!!!RWG2: Transposing instruments are not transposed.
!!!RWG3: Spines may have incompatible meters.
!!!RWG4: Durations of rests and tied notes may be interpreted.
!!!RWG: Key is interpreted using the Humdrum key tool.
!!!AFT: stage1
!!!END: 1997/04/15/
!!format changes:
!!content changes:
!!public access: complete
!!!KEY: 3865474816
!!!EMD: Converted from MuseData to Humdrum Dec 19, 2000, by Andreas Kornstaedt using muse2kern.
